symbols/web/photo_album/materialsymbolssharp/photo_album_wght300grad200fill1_24px.svg

<svg xmlns="http://www.w3.org/2000/svg" height="24" width="24"><path d="M3.75 22.3V1.7h16.5v20.6Zm3.05-4.15h10.325L14 13.475l-2.7 3.75-2.05-2.375Zm5.025-14.3v6.55l2.25-1.35 2.25 1.35V3.85Z"/></svg>

<svg xmlns="http://www.w3.org/2000/svg" height="24" width="24"><path d="M3.75 22.3V1.7H20.25V22.3ZM6.8 18.15H17.125L14 13.475L11.3 17.225L9.25 14.85ZM11.825 3.85V10.4L14.075 9.05L16.325 10.4V3.85Z"/></svg>
